ubuntu-mono-dark/status/22/gpm-phone-000.svg

<?xml version="1.0" encoding="UTF-8" standalone="no"?>
<!-- Created with Inkscape (http://www.inkscape.org/) -->
<svg
   xmlns:dc="http://purl.org/dc/elements/1.1/"
   xmlns:cc="http://creativecommons.org/ns#"
   xmlns:rdf="http://www.w3.org/1999/02/22-rdf-syntax-ns#"
   xmlns:svg="http://www.w3.org/2000/svg"
   xmlns="http://www.w3.org/2000/svg"
   xmlns:sodipodi="http://sodipodi.sourceforge.net/DTD/sodipodi-0.dtd"
   xmlns:inkscape="http://www.inkscape.org/namespaces/inkscape"
   version="1.0"
   width="22"
   height="22"
   id="svg3206"
   sodipodi:version="0.32"
   inkscape:version="0.46"
   sodipodi:docname="gpm-phone-000.svg"
   inkscape:output_extension="org.inkscape.output.svg.inkscape">
  <metadata
     id="metadata9">
    <rdf:RDF>
      <cc:Work
         rdf:about="">
        <dc:format>image/svg+xml</dc:format>
        <dc:type
           rdf:resource="http://purl.org/dc/dcmitype/StillImage" />
      </cc:Work>
    </rdf:RDF>
  </metadata>
  <sodipodi:namedview
     inkscape:window-height="706"
     inkscape:window-width="640"
     inkscape:pageshadow="2"
     inkscape:pageopacity="0.0"
     guidetolerance="10.0"
     gridtolerance="10.0"
     objecttolerance="10.0"
     borderopacity="1.0"
     bordercolor="#666666"
     pagecolor="#ffffff"
     id="base"
     showgrid="false"
     inkscape:zoom="10.375"
     inkscape:cx="4.5301205"
     inkscape:cy="12"
     inkscape:window-x="399"
     inkscape:window-y="51"
     inkscape:current-layer="svg3206" />
  <defs
     id="defs3208">
    <inkscape:perspective
       sodipodi:type="inkscape:persp3d"
       inkscape:vp_x="0 : 12 : 1"
       inkscape:vp_y="0 : 1000 : 0"
       inkscape:vp_z="24 : 12 : 1"
       inkscape:persp3d-origin="12 : 8 : 1"
       id="perspective11" />
  </defs>
  <path
     d="M 12.499999,17.5 L 12.499999,5.5 C 12.499999,4.946 12.945999,4.5 13.499999,4.5 L 18.499999,4.5 C 19.053999,4.5 19.499999,4.946 19.499999,5.5 L 19.499999,17.5 C 19.499999,18.054 19.053999,18.5 18.499999,18.5 L 13.499999,18.5 C 12.945999,18.5 12.499999,18.054 12.499999,17.5 z M 14.502639,4.381549 C 14.503339,4.053509 14.504167,3.725473 14.505143,3.397441 C 14.5459,2.799616 15.154739,2.420708 15.717337,2.499967 C 16.250259,2.5234 16.894233,2.375846 17.272202,2.863162 C 17.622963,3.30164 17.463607,3.884362 17.499999,4.400369"
     id="rect2442"
     style="fill:none;fill-opacity:1;fill-rule:nonzero;stroke:#dc0000;stroke-width:1;stroke-linecap:round;stroke-linejoin:miter;marker:none;marker-start:none;marker-mid:none;marker-end:none;stroke-miterlimit:4;stroke-dashoffset:0;stroke-opacity:1;visibility:visible;display:inline;overflow:visible;enable-background:accumulate" />
  <path
     d="M 2.9999995,4 C 2.4459995,4 1.9999995,4.446 1.9999995,5 L 1.9999995,18 C 1.9999995,18.554 2.4459995,19 2.9999995,19 L 8.9999995,19 C 9.5539995,19 9.9999995,18.554 9.9999995,18 L 9.9999995,5 C 9.9999995,4.446 9.5539995,4 8.9999995,4 L 2.9999995,4 z M 3.4999995,5 L 8.4999995,5 C 8.7769995,5 8.9999995,5.223 8.9999995,5.5 L 8.9999995,12.5 C 8.9999995,12.777 8.7769995,13 8.4999995,13 L 3.4999995,13 C 3.2229995,13 2.9999995,12.777 2.9999995,12.5 L 2.9999995,5.5 C 2.9999995,5.223 3.2229995,5 3.4999995,5 z M 3.4999995,15 C 3.7769995,15 3.9999995,15.223 3.9999995,15.5 C 3.9999995,15.777 3.7769995,16 3.4999995,16 C 3.2229995,16 2.9999995,15.777 2.9999995,15.5 C 2.9999995,15.223 3.2229995,15 3.4999995,15 z M 5.4999995,15 C 5.7769995,15 5.9999995,15.223 5.9999995,15.5 C 5.9999995,15.223 6.2229995,15 6.4999995,15 C 6.7769995,15 6.9999995,15.223 6.9999995,15.5 C 6.9999995,15.777 6.7769995,16 6.4999995,16 C 6.2229995,16 5.9999995,15.777 5.9999995,15.5 C 5.9999995,15.777 5.7769995,16 5.4999995,16 C 5.2229995,16 4.9999995,15.777 4.9999995,15.5 C 4.9999995,15.223 5.2229995,15 5.4999995,15 z M 8.4999995,15 C 8.7769995,15 8.9999995,15.223 8.9999995,15.5 C 8.9999995,15.777 8.7769995,16 8.4999995,16 C 8.2229995,16 7.9999995,15.777 7.9999995,15.5 C 7.9999995,15.223 8.2229995,15 8.4999995,15 z M 3.4999995,17 C 3.7769995,17 3.9999995,17.223 3.9999995,17.5 C 3.9999995,17.777 3.7769995,18 3.4999995,18 C 3.2229995,18 2.9999995,17.777 2.9999995,17.5 C 2.9999995,17.223 3.2229995,17 3.4999995,17 z M 5.4999995,17 C 5.7769995,17 5.9999995,17.223 5.9999995,17.5 C 5.9999995,17.223 6.2229995,17 6.4999995,17 C 6.7769995,17 6.9999995,17.223 6.9999995,17.5 C 6.9999995,17.777 6.7769995,18 6.4999995,18 C 6.2229995,18 5.9999995,17.777 5.9999995,17.5 C 5.9999995,17.777 5.7769995,18 5.4999995,18 C 5.2229995,18 4.9999995,17.777 4.9999995,17.5 C 4.9999995,17.223 5.2229995,17 5.4999995,17 z M 8.4999995,17 C 8.7769995,17 8.9999995,17.223 8.9999995,17.5 C 8.9999995,17.777 8.7769995,18 8.4999995,18 C 8.2229995,18 7.9999995,17.777 7.9999995,17.5 C 7.9999995,17.223 8.2229995,17 8.4999995,17 z"
     id="rect2397"
     style="fill:#dfd8c8;fill-opacity:1;fill-rule:evenodd;stroke:none;stroke-width:1.69999993;stroke-linecap:round;stroke-linejoin:miter;marker:none;marker-start:none;marker-mid:none;marker-end:none;stroke-miterlimit:4;stroke-dasharray:none;stroke-dashoffset:0;stroke-opacity:1;visibility:visible;display:inline;overflow:visible;enable-background:accumulate" />
  <path
     d="M 13.249999,17.5 L 13.249999,5.5 C 13.249999,5.3615 13.361499,5.25 13.499999,5.25 L 18.499999,5.25 C 18.638499,5.25 18.749999,5.3615 18.749999,5.5 L 18.749999,17.5 C 18.749999,17.6385 18.638499,17.75 18.499999,17.75 L 13.499999,17.75 C 13.361499,17.75 13.249999,17.6385 13.249999,17.5 z M 3.2499995,12.500001 L 3.2499995,5.5000005 C 3.2499995,5.3615005 3.3614995,5.2500005 3.4999995,5.2500005 L 8.499999,5.2500005 C 8.638499,5.2500005 8.749999,5.3615005 8.749999,5.5000005 L 8.749999,12.500001 C 8.749999,12.638501 8.638499,12.750001 8.499999,12.750001 L 3.4999995,12.750001 C 3.3614995,12.750001 3.2499995,12.638501 3.2499995,12.500001 z"
     id="rect3236"
     style="opacity:0.3;fill:none;fill-opacity:1;fill-rule:nonzero;stroke:#ffffff;stroke-width:0.5;stroke-linecap:round;stroke-linejoin:miter;marker:none;marker-start:none;marker-mid:none;marker-end:none;stroke-miterlimit:4;stroke-dashoffset:0;stroke-opacity:1;visibility:visible;display:inline;overflow:visible;enable-background:accumulate" />
  <path
     d="M 11.499999,17.5 C 11.499999,18.608 12.391999,19.5 13.499999,19.5 L 18.499999,19.5 C 19.607999,19.5 20.499999,18.608 20.499999,17.5 L 20.499999,5.5 C 20.499999,4.197903 19.949516,3.5963187 18.499999,3.5 C 18.4654,2.913139 18.26261,2.339672 17.781249,1.96875 C 17.206344,1.443537 16.592478,1.553939 15.687499,1.5 C 14.78252,1.446061 13.523748,2.469035 13.499999,3.573789 C 12.364935,3.573789 11.543703,3.9287747 11.499999,5.5 L 11.499999,17.5 z M 3,3.5 L 8.9999995,3.5 C 9.8309995,3.5 10.499999,4.169 10.499999,5 L 10.499999,18 C 10.499999,18.831 9.8309995,19.5 8.9999995,19.5 L 3,19.5 C 2.169,19.5 1.5,18.831 1.5,18 L 1.5,5 C 1.5,4.169 2.169,3.5 3,3.5 z"
     id="rect3225"
     style="opacity:0.6;fill:none;fill-opacity:1;fill-rule:nonzero;stroke:#43423e;stroke-width:0.99999994;stroke-linecap:round;stroke-linejoin:miter;marker:none;marker-start:none;marker-mid:none;marker-end:none;stroke-miterlimit:4;stroke-dasharray:none;stroke-dashoffset:0;stroke-opacity:1;visibility:visible;display:inline;overflow:visible;enable-background:accumulate" />
</svg>

<?xml version="1.0" encoding="UTF-8" standalone="no"?>
<!-- Created with Inkscape (http://www.inkscape.org/) -->

<svg
   xmlns:dc="http://purl.org/dc/elements/1.1/"
   xmlns:cc="http://creativecommons.org/ns#"
   xmlns:rdf="http://www.w3.org/1999/02/22-rdf-syntax-ns#"
   xmlns:svg="http://www.w3.org/2000/svg"
   xmlns="http://www.w3.org/2000/svg"
   xmlns:sodipodi="http://sodipodi.sourceforge.net/DTD/sodipodi-0.dtd"
   xmlns:inkscape="http://www.inkscape.org/namespaces/inkscape"
   version="1.1"
   width="22"
   height="22"
   id="svg3809"
   inkscape:version="0.48.0 r9654"
   sodipodi:docname="gpm-phone-000.svg">
  <sodipodi:namedview
     pagecolor="#363636"
     bordercolor="#666666"
     borderopacity="1"
     objecttolerance="10"
     gridtolerance="10"
     guidetolerance="10"
     inkscape:pageopacity="0"
     inkscape:pageshadow="2"
     inkscape:window-width="640"
     inkscape:window-height="480"
     id="namedview12"
     showgrid="false"
     inkscape:zoom="13.227273"
     inkscape:cx="11"
     inkscape:cy="11.793814"
     inkscape:window-x="655"
     inkscape:window-y="118"
     inkscape:window-maximized="0"
     inkscape:current-layer="svg3809" />
  <defs
     id="defs3811" />
  <metadata
     id="metadata3814">
    <rdf:RDF>
      <cc:Work
         rdf:about="">
        <dc:format>image/svg+xml</dc:format>
        <dc:type
           rdf:resource="http://purl.org/dc/dcmitype/StillImage" />
        <dc:title />
      </cc:Work>
    </rdf:RDF>
  </metadata>
  <path
     inkscape:connector-curvature="0"
     style="opacity:0.3;fill:#000000;fill-opacity:1;fill-rule:evenodd;stroke:none;stroke-width:1.69999993;marker:none;visibility:visible;display:inline;overflow:visible;enable-background:accumulate"
     id="rect2397-6"
     d="m 2.9999995,4.9999999 c -0.554,0 -1,0.446 -1,1 l 0,13.0000001 c 0,0.554 0.446,1 1,1 l 6,0 c 0.554,0 1,-0.446 1,-1 l 0,-13.0000001 c 0,-0.554 -0.446,-1 -1,-1 l -6,0 z m 0.5,1 5,0 c 0.277,0 0.5,0.223 0.5,0.5 l 0,7.0000001 c 0,0.277 -0.223,0.5 -0.5,0.5 l -5,0 c -0.277,0 -0.5,-0.223 -0.5,-0.5 l 0,-7.0000001 c 0,-0.277 0.223,-0.5 0.5,-0.5 z m 0,10.0000001 c 0.277,0 0.5,0.223 0.5,0.5 0,0.277 -0.223,0.5 -0.5,0.5 -0.277,0 -0.5,-0.223 -0.5,-0.5 0,-0.277 0.223,-0.5 0.5,-0.5 z m 2,0 c 0.277,0 0.5,0.223 0.5,0.5 0,-0.277 0.223,-0.5 0.5,-0.5 0.277,0 0.5,0.223 0.5,0.5 0,0.277 -0.223,0.5 -0.5,0.5 -0.277,0 -0.5,-0.223 -0.5,-0.5 0,0.277 -0.223,0.5 -0.5,0.5 -0.277,0 -0.5,-0.223 -0.5,-0.5 0,-0.277 0.223,-0.5 0.5,-0.5 z m 3,0 c 0.277,0 0.5,0.223 0.5,0.5 0,0.277 -0.223,0.5 -0.5,0.5 -0.277,0 -0.5,-0.223 -0.5,-0.5 0,-0.277 0.223,-0.5 0.5,-0.5 z m -5,2 c 0.277,0 0.5,0.223 0.5,0.5 0,0.277 -0.223,0.5 -0.5,0.5 -0.277,0 -0.5,-0.223 -0.5,-0.5 0,-0.277 0.223,-0.5 0.5,-0.5 z m 2,0 c 0.277,0 0.5,0.223 0.5,0.5 0,-0.277 0.223,-0.5 0.5,-0.5 0.277,0 0.5,0.223 0.5,0.5 0,0.277 -0.223,0.5 -0.5,0.5 -0.277,0 -0.5,-0.223 -0.5,-0.5 0,0.277 -0.223,0.5 -0.5,0.5 -0.277,0 -0.5,-0.223 -0.5,-0.5 0,-0.277 0.223,-0.5 0.5,-0.5 z m 3,0 c 0.277,0 0.5,0.223 0.5,0.5 0,0.277 -0.223,0.5 -0.5,0.5 -0.277,0 -0.5,-0.223 -0.5,-0.5 0,-0.277 0.223,-0.5 0.5,-0.5 z" />
  <path
     inkscape:connector-curvature="0"
     style="fill:#dfdbd2;fill-opacity:1;fill-rule:evenodd;stroke:none;stroke-width:1.69999993;marker:none;visibility:visible;display:inline;overflow:visible;enable-background:accumulate"
     id="rect2397"
     d="m 2.9999995,3.9999999 c -0.554,0 -1,0.446 -1,1 l 0,13.0000001 c 0,0.554 0.446,1 1,1 l 6,0 c 0.554,0 1,-0.446 1,-1 l 0,-13.0000001 c 0,-0.554 -0.446,-1 -1,-1 l -6,0 z m 0.5,1 5,0 c 0.277,0 0.5,0.223 0.5,0.5 l 0,7.0000001 c 0,0.277 -0.223,0.5 -0.5,0.5 l -5,0 c -0.277,0 -0.5,-0.223 -0.5,-0.5 l 0,-7.0000001 c 0,-0.277 0.223,-0.5 0.5,-0.5 z m 0,10.0000001 c 0.277,0 0.5,0.223 0.5,0.5 0,0.277 -0.223,0.5 -0.5,0.5 -0.277,0 -0.5,-0.223 -0.5,-0.5 0,-0.277 0.223,-0.5 0.5,-0.5 z m 2,0 c 0.277,0 0.5,0.223 0.5,0.5 0,-0.277 0.223,-0.5 0.5,-0.5 0.277,0 0.5,0.223 0.5,0.5 0,0.277 -0.223,0.5 -0.5,0.5 -0.277,0 -0.5,-0.223 -0.5,-0.5 0,0.277 -0.223,0.5 -0.5,0.5 -0.277,0 -0.5,-0.223 -0.5,-0.5 0,-0.277 0.223,-0.5 0.5,-0.5 z m 3,0 c 0.277,0 0.5,0.223 0.5,0.5 0,0.277 -0.223,0.5 -0.5,0.5 -0.277,0 -0.5,-0.223 -0.5,-0.5 0,-0.277 0.223,-0.5 0.5,-0.5 z m -5,2 c 0.277,0 0.5,0.223 0.5,0.5 0,0.277 -0.223,0.5 -0.5,0.5 -0.277,0 -0.5,-0.223 -0.5,-0.5 0,-0.277 0.223,-0.5 0.5,-0.5 z m 2,0 c 0.277,0 0.5,0.223 0.5,0.5 0,-0.277 0.223,-0.5 0.5,-0.5 0.277,0 0.5,0.223 0.5,0.5 0,0.277 -0.223,0.5 -0.5,0.5 -0.277,0 -0.5,-0.223 -0.5,-0.5 0,0.277 -0.223,0.5 -0.5,0.5 -0.277,0 -0.5,-0.223 -0.5,-0.5 0,-0.277 0.223,-0.5 0.5,-0.5 z m 3,0 c 0.277,0 0.5,0.223 0.5,0.5 0,0.277 -0.223,0.5 -0.5,0.5 -0.277,0 -0.5,-0.223 -0.5,-0.5 0,-0.277 0.223,-0.5 0.5,-0.5 z" />
  <path
     style="opacity:0.3;fill:none;stroke:#ffffff;stroke-width:0.5;stroke-linecap:round;stroke-linejoin:miter;stroke-miterlimit:4;stroke-opacity:1;stroke-dashoffset:0;marker:none;visibility:visible;display:inline;overflow:visible;enable-background:accumulate"
     d="m 3.2499995,12.500001 0,-7.0000006 c 0,-0.1385 0.1115,-0.25 0.25,-0.25 l 4.9999995,0 c 0.1385,0 0.25,0.1115 0.25,0.25 l 0,7.0000006 c 0,0.1385 -0.1115,0.25 -0.25,0.25 l -4.9999995,0 c -0.1385,0 -0.25,-0.1115 -0.25,-0.25 z"
     id="rect3236" />
  <path
     inkscape:connector-curvature="0"
     style="opacity:0.3;fill:none;stroke:#000000;stroke-width:1;stroke-linecap:round;stroke-linejoin:miter;stroke-miterlimit:4;stroke-opacity:1;stroke-dashoffset:0;marker:none;visibility:visible;display:inline;overflow:visible;enable-background:accumulate"
     id="rect2442-9"
     d="m 12.5,18.5 0,-12.0000006 c 0,-0.554 0.445999,-1 1,-1 l 5,0 c 0.553999,0 1,0.446 1,1 L 19.5,18.5 c 0,0.554 -0.446001,1 -1,1 l -4.999998,0 c -0.554001,0 -1,-0.446 -1,-1 z M 14.502639,5.3815484 c 7e-4,-0.32804 0.0015,-0.656076 0.0025,-0.984108 0.04076,-0.597825 0.649596,-0.976733 1.212194,-0.897474 0.532922,0.023433 1.176896,-0.124121 1.554865,0.363195 0.35076,0.438478 0.191405,1.0212 0.227796,1.537207" />
  <rect
     style="opacity:0.3;fill:none;stroke:#df382c;stroke-width:0.5;stroke-linecap:round;stroke-linejoin:miter;stroke-miterlimit:4;stroke-opacity:1;stroke-dasharray:none;stroke-dashoffset:0;marker:none;visibility:visible;display:inline;overflow:visible;enable-background:accumulate"
     id="rect3236-7"
     transform="matrix(0,-1,1,0,0,0)"
     y="13.249998"
     x="-17.75"
     ry="0.24999999"
     rx="0.25"
     height="5.4999995"
     width="12.5" />
  <path
     inkscape:connector-curvature="0"
     style="fill:none;stroke:#df382c;stroke-width:1;stroke-linecap:round;stroke-linejoin:miter;stroke-miterlimit:4;stroke-opacity:1;stroke-dashoffset:0;marker:none;visibility:visible;display:inline;overflow:visible;enable-background:accumulate"
     id="rect2442-6"
     d="m 12.5,17.5 0,-12.0000003 c 0,-0.554 0.445999,-1 1,-1 l 5,0 c 0.553999,0 1,0.446 1,1 L 19.5,17.5 c 0,0.554 -0.446001,1 -1,1 l -4.999999,0 c -0.554001,0 -1,-0.446 -1,-1 z M 14.502639,4.3815487 c 7e-4,-0.32804 0.0015,-0.656076 0.0025,-0.984108 0.04076,-0.597825 0.649596,-0.976733 1.212194,-0.897474 0.532922,0.023433 1.176896,-0.124121 1.554865,0.363195 0.35076,0.438478 0.191405,1.0212 0.227796,1.537207" />
</svg>
